X:5094
T:Last Orders
M:2/4
R:Polka
L:1/8
Q:240
C:Aidan Crossey
K:D
|:FA AF|GB BG|FA AF|E/F/E/D/ B,A,|
FA AF|GB BG|F/E/D/F/ EC|DF D2:||
|:fA Af|gB Bg|fA df|ef ge|
fA Af|ga bg|ag ec|df d2:||
